!!!OTL: 608. Der Bergmann.
!!!ARE: Europa, Mitteleuropa, Deutschland, Deistergebirge, Bantorf
!!!SCT: B0608
!!!TXL: @@DE
!!!YEM: Copyright 1995, estate of Helmut Schaffrath.
**kern	**text
*ICvox	*
*Ivox	*
*clefG2	*
*M3/8	*
*k[b-]	*
*F:	*
!LO:TX:a:t=Ruhig.	!
{8cc	Der
=1	=1
8cc	Berg-
8.dd	-mann
16a	im
=2	=2
8cc	ſchwar-
8dd}	-ʒen
{16aL	Ge-
16ccJ	.
=3	=3
8cc	-wand,
8b-	ein-
8e	-fach
=4	=4
4g}	ſchlicht,
{16gL	geht
16aJ	.
=5	=5
8b-	ſtill
8.ee	durch
16b-	das
=6	=6
8b-}	Le-
{8.ee	-ben,
16dd	man
=7	=7
8cc	ach-
8f	-tet
8g	ſei_ner
=8	=8
4a}	nicht;
{8cc	tief
=9	=9
8cc	un_ten
8.dd	in
16a	der
=10	=10
8cc	Gru-
8dd}	-be
{16a/L	da
16ccJ	.
=11	=11
8cc	gräbt
8b-	er's
8e	aus
=12	=12
4g}	Noth,
{8ff	gräbt
=13	=13
8ee	Schät-
8.dd	-ʒe
16ee	und
=14	=14
8dd	hat
8.cc}	kaum
{16cc	das
=15	=15
8cc	täg-
8dd	-li-
8ee	-che
=16	=16
4ff}	Brot.
=||	=||
{8g	Doch
=17	=17
8.g	ſchaut
16b	er
8b	ver-
=18	=18
4cc}	-gnügt
{8cc	ʒum
=19	=19
8dd	Him-
8dd	-mel
8dd	hin-
=20	=20
4ee}	-auf
{16eeL	und
16ggJ	.
=21	=21
8gg	ſingt
8.ff	aus
16cc	der
=22	=22
8ee	Gru-
8.dd}	-be
{16b-	ſein
=23	=23
8.dd	fröh-
16cc	-lich
8dd	"Glück-
=24	=24
4cc^^}	-auf,"
{16eeL	und
16ggJ	.
=25	=25
8gg	ſingt
8ff	aus
8cc	der
=26	=26
8dd	Gru-
8.dd}	-be
{16ff	ſein
=27	=27
8.ee	fröh-
16dd	-lich
8ee	"Glück-
=28	=28
4ff}	-auf!"
==	==
!!!AGN: Staende -, Bergmanns - Lied
!!!GTL: Seemanns-, Bergmanns-, Bauern- und Handwerkerlieder
!!!ONB: ESAC (Essen Associative Code) Database: BOEHME
!!!AMT: simple triple
!!!AIN: vox
!!!EED: Helmut Schaffrath
!!!EEV: 1.0
!!Von Bergleuten in Bantorf (im Deistergebirge) geֵsungen und von L. Erk 1879 aufgezeichnet.
!!!URL-scan: https://archive.org/details/BoehmeVtLieder1895/page/n481/mode/2up
!!!ENC: Anna Maria Matuszewska
!!!EEV: 2024/15/07
*-	*-
